X: 42726
T: Whistling Postman, The
R: reel
M: 4/4
K: Dmajor
|:de|fd ~d2 e^def|dBAF (3EFG FE|D2FD ADFA|~e3f gbag|
fd ~d2 edef|dBAF (3EFG FE|DF ~F2 ADFd|edBc d2:|
|:(3fed dc dfaf|bfaf gfef|dfaf gfgb|afdf e2de|
[1 fd~d2 dfaf|bfaf gfef|dBAG (3FGA df|edBc d2 de:|
[2 a2bf afef|efdf edBe|dBAF ABdf|eABc d4||

